SVG_Azure_Grouped/Data/Azure Cosmos DB Query Explorer.svg

<?xml version="1.0" encoding="UTF-8" standalone="no"?>
<!-- Generated by Microsoft Visio, SVG Export Azure Cosmos DB Query Explorer.svg Page-1 -->

<svg
   xmlns:dc="http://purl.org/dc/elements/1.1/"
   xmlns:cc="http://creativecommons.org/ns#"
   xmlns:rdf="http://www.w3.org/1999/02/22-rdf-syntax-ns#"
   xmlns:svg="http://www.w3.org/2000/svg"
   xmlns="http://www.w3.org/2000/svg"
   xmlns:sodipodi="http://sodipodi.sourceforge.net/DTD/sodipodi-0.dtd"
   xmlns:inkscape="http://www.inkscape.org/namespaces/inkscape"
   width="0.79211164in"
   height="0.78741902in"
   viewBox="0 0 57.031954 56.694254"
   xml:space="preserve"
   class="st5"
   version="1.1"
   id="svg33"
   sodipodi:docname="Azure Cosmos DB Query Explorer.svg"
   style="font-size:12px;overflow:visible;color-interpolation-filters:sRGB;fill:none;fill-rule:evenodd;stroke-linecap:square;stroke-miterlimit:3"
   inkscape:version="0.92.5 (2060ec1f9f, 2020-04-08)"><metadata
   id="metadata39"><rdf:RDF><cc:Work
       rdf:about=""><dc:format>image/svg+xml</dc:format><dc:type
         rdf:resource="http://purl.org/dc/dcmitype/StillImage" /></cc:Work></rdf:RDF></metadata><defs
   id="defs37" /><sodipodi:namedview
   pagecolor="#ffffff"
   bordercolor="#666666"
   borderopacity="1"
   objecttolerance="10"
   gridtolerance="10"
   guidetolerance="10"
   inkscape:pageopacity="0"
   inkscape:pageshadow="2"
   inkscape:window-width="640"
   inkscape:window-height="480"
   id="namedview35"
   showgrid="false"
   inkscape:zoom="1.3289007"
   inkscape:cx="38.019306"
   inkscape:cy="37.791213"
   inkscape:window-x="0"
   inkscape:window-y="0"
   inkscape:window-maximized="0"
   inkscape:current-layer="svg33" />
	<style
   type="text/css"
   id="style2">
	<![CDATA[
		.st1 {fill:#00aeef;stroke:none;stroke-linecap:butt;stroke-width:38.25}
		.st2 {fill:#7a7a7a}
		.st3 {stroke:none;stroke-linecap:butt;stroke-width:38.25}
		.st4 {fill:#00aeef}
		.st5 {fill:none;fill-rule:evenodd;font-size:12px;overflow:visible;stroke-linecap:square;stroke-miterlimit:3}
	]]>
	</style>

	<g
   id="g31"
   transform="translate(-38.251178,-38.2457)">
		<title
   id="title4">Page-1</title>
		<g
   id="group19736-1"
   transform="translate(38.5884,-38.2501)">
			<title
   id="title6">Azure Cosmos DB Query Explorer.19736</title>
			<g
   id="group19737-2">
				<title
   id="title8">Sheet.19737</title>
				<g
   id="shape19738-3"
   transform="translate(18.1447,-17.4942)">
					<title
   id="title10">Sheet.19738</title>
					<path
   d="m 0,93.99 h 11.53 v 11.62 H 0 Z m 13.46,0 h 11.56 v 11.62 H 13.46 Z m 13.56,0 h 11.53 v 11.62 H 27.02 Z m 0,13.72 h 11.53 v 11.62 H 27.02 Z m 0,13.72 h 11.53 v 11.76 H 27.02 Z"
   class="st1"
   id="path12"
   inkscape:connector-curvature="0"
   style="fill:#00aeef;stroke:none;stroke-width:38.25;stroke-linecap:butt" />
				</g>
				<g
   id="shape19739-5">
					<title
   id="title15">Sheet.19739</title>
					<path
   d="M 3.83,133.19 A 4.24744,4.31911 0 0 1 0.8,125.93 L 11.11,115.37 A 14.8125,15.0625 0 0 1 24.18,93.05 14.9553,15.2076 0 0 1 27.75,93.49 14.8482,15.0988 0 1 1 17.04,121.4 L 6.72,131.92 a 4.24744,4.31911 0 0 1 -3.03,1.27 z m 20.2,-34.44 a 9.20873,9.36413 -180 1 0 2.22,0.29 9.20873,9.36413 -180 0 0 -2.22,-0.29 z"
   class="st2"
   id="path17"
   inkscape:connector-curvature="0"
   style="fill:#7a7a7a" />
					<path
   d="M 3.83,133.19 A 4.24744,4.31911 0 0 1 0.8,125.93 L 11.11,115.37 A 14.8125,15.0625 0 0 1 24.18,93.05 14.9553,15.2076 0 0 1 27.75,93.49 14.8482,15.0988 0 1 1 17.04,121.4 L 6.72,131.92 a 4.24744,4.31911 0 0 1 -3.03,1.27 M 24.03,98.75 a 9.20873,9.36413 -180 1 0 2.22,0.29 9.20873,9.36413 -180 0 0 -2.22,-0.29"
   class="st3"
   id="path19"
   inkscape:connector-curvature="0"
   style="stroke:none;stroke-width:38.25;stroke-linecap:butt" />
				</g>
				<g
   id="shape19740-8"
   transform="translate(18.1447,-17.4942)">
					<title
   id="title22">Sheet.19740</title>
					<path
   d="m 9.99,109.64 1.5,0.47 v -2.4 H 0 v 2.73 a 15.9903,16.2602 0 0 1 9.99,-0.8 z m 9.93,7.4 a 16.1688,16.4417 0 0 1 1.1,2.29 h 4.04 v -11.62 h -11.5 v 3.23 a 15.8833,16.1513 0 0 1 6.46,6.07 z m 1.85,12.31 a 16.1331,16.4054 0 0 1 -1.46,3.84 h 4.75 v -11.76 h -3.32 a 15.919,16.1876 0 0 1 0,7.92 z m -7.71,-3.74 a 7.8881,8.02121 0 1 1 -7.89,-8.02 7.8881,8.02121 0 0 1 7.89,8.02 z"
   class="st4"
   id="path24"
   inkscape:connector-curvature="0"
   style="fill:#00aeef" />
					<path
   d="m 9.99,109.64 1.5,0.47 v -2.4 H 0 v 2.73 a 15.9903,16.2602 0 0 1 9.99,-0.8 m 9.93,7.4 a 16.1688,16.4417 0 0 1 1.1,2.29 h 4.04 v -11.62 h -11.5 v 3.23 a 15.8833,16.1513 0 0 1 6.46,6.07 m 1.75,12.34 a 16.1331,16.4054 0 0 1 -1.46,3.84 h 4.75 v -11.76 h -3.32 a 15.919,16.1876 0 0 1 0,7.92 m -7.68,-3.74 a 7.8881,8.02121 0 1 1 -7.89,-8.02 7.8881,8.02121 0 0 1 7.89,8.02"
   class="st3"
   id="path26"
   inkscape:connector-curvature="0"
   style="stroke:none;stroke-width:38.25;stroke-linecap:butt" />
				</g>
			</g>
		</g>
	</g>
</svg>

<?xml version="1.0" encoding="UTF-8" standalone="no"?>
<!DOCTYPE svg PUBLIC "-//W3C//DTD SVG 1.1//EN" "http://www.w3.org/Graphics/SVG/1.1/DTD/svg11.dtd">
<!-- Generated by Microsoft Visio, SVG Export Azure Cosmos DB Query Explorer.svg Page-1 -->
<svg xmlns="http://www.w3.org/2000/svg" xmlns:xlink="http://www.w3.org/1999/xlink" xmlns:ev="http://www.w3.org/2001/xml-events"
		width="1.8546in" height="1.8499in" viewBox="0 0 133.531 133.193" xml:space="preserve" color-interpolation-filters="sRGB"
		class="st5">
	<style type="text/css">
	<![CDATA[
		.st1 {fill:#00aeef;stroke:none;stroke-linecap:butt;stroke-width:38.25}
		.st2 {fill:#7a7a7a}
		.st3 {stroke:none;stroke-linecap:butt;stroke-width:38.25}
		.st4 {fill:#00aeef}
		.st5 {fill:none;fill-rule:evenodd;font-size:12px;overflow:visible;stroke-linecap:square;stroke-miterlimit:3}
	]]>
	</style>

	<g>
		<title>Page-1</title>
		<g id="group19287-1" transform="translate(38.5884,-38.2501)">
			<title>Azure Cosmos DB Query Explorer.19287</title>
			<g id="group19288-2">
				<title>Sheet.19288</title>
				<g id="shape19289-3" transform="translate(18.1447,-17.4942)">
					<title>Sheet.19289</title>
					<path d="M0 93.99 L11.53 93.99 L11.53 105.61 L0 105.61 L0 93.99 ZM13.46 93.99 L25.02 93.99 L25.02 105.61 L13.46
								 105.61 L13.46 93.99 ZM27.02 93.99 L38.55 93.99 L38.55 105.61 L27.02 105.61 L27.02 93.99 ZM27.02
								 107.71 L38.55 107.71 L38.55 119.33 L27.02 119.33 L27.02 107.71 ZM27.02 121.43 L38.55 121.43 L38.55
								 133.19 L27.02 133.19 L27.02 121.43 Z" class="st1"/>
				</g>
				<g id="shape19290-5">
					<title>Sheet.19290</title>
					<path d="M3.83 133.19 A4.24744 4.31911 0 0 1 0.8 125.93 L11.11 115.37 A14.8125 15.0625 0 0 1 24.18 93.05 A14.9553
								 15.2076 0 0 1 27.75 93.49 A14.8482 15.0988 0 1 1 17.04 121.4 L6.72 131.92 A4.24744 4.31911 0 0 1
								 3.69 133.19 L3.83 133.19 ZM24.03 98.75 A9.20873 9.36413 -180 1 0 26.25 99.04 A9.20873 9.36413 -180
								 0 0 24.03 98.75 Z" class="st2"/>
					<path d="M3.83 133.19 A4.24744 4.31911 0 0 1 0.8 125.93 L11.11 115.37 A14.8125 15.0625 0 0 1 24.18 93.05 A14.9553
								 15.2076 0 0 1 27.75 93.49 A14.8482 15.0988 0 1 1 17.04 121.4 L6.72 131.92 A4.24744 4.31911 0 0 1
								 3.69 133.19M24.03 98.75 A9.20873 9.36413 -180 1 0 26.25 99.04 A9.20873 9.36413 -180 0 0 24.03 98.75"
							class="st3"/>
				</g>
				<g id="shape19291-8" transform="translate(18.1447,-17.4942)">
					<title>Sheet.19291</title>
					<path d="M9.99 109.64 L11.49 110.11 L11.49 107.71 L0 107.71 L0 110.44 A15.9903 16.2602 0 0 1 9.99 109.64 ZM19.92
								 117.04 A16.1688 16.4417 0 0 1 21.02 119.33 L25.06 119.33 L25.06 107.71 L13.56 107.71 L13.56 110.94
								 A15.8833 16.1513 0 0 1 20.02 117.01 L19.92 117.04 ZM21.77 129.35 A16.1331 16.4054 0 0 1 20.31 133.19
								 L25.06 133.19 L25.06 121.43 L21.74 121.43 A15.919 16.1876 0 0 1 21.74 129.35 L21.77 129.35 ZM14.06
								 125.61 A7.8881 8.02121 0 1 1 6.17 117.59 A7.8881 8.02121 0 0 1 14.06 125.61 Z" class="st4"/>
					<path d="M9.99 109.64 L11.49 110.11 L11.49 107.71 L0 107.71 L0 110.44 A15.9903 16.2602 0 0 1 9.99 109.64M19.92
								 117.04 A16.1688 16.4417 0 0 1 21.02 119.33 L25.06 119.33 L25.06 107.71 L13.56 107.71 L13.56 110.94
								 A15.8833 16.1513 0 0 1 20.02 117.01M21.77 129.35 A16.1331 16.4054 0 0 1 20.31 133.19 L25.06 133.19
								 L25.06 121.43 L21.74 121.43 A15.919 16.1876 0 0 1 21.74 129.35M14.06 125.61 A7.8881 8.02121 0 1
								 1 6.17 117.59 A7.8881 8.02121 0 0 1 14.06 125.61" class="st3"/>
				</g>
			</g>
		</g>
	</g>
</svg>
